public/client4.svg

<svg width="106" height="60" viewBox="0 0 106 60" fill="none" xmlns="http://www.w3.org/2000/svg">
<path d="M25.4022 21.8306H25.3995C23.1372 21.8306 21.3032 23.6177 21.3032 25.8223V25.8249C21.3032 28.0295 23.1372 29.8167 25.3995 29.8167H25.4022C27.6645 29.8167 29.4985 28.0295 29.4985 25.8249V25.8223C29.4985 23.6177 27.6645 21.8306 25.4022 21.8306Z" fill="#2196F3"/>
<path d="M55.6368 20.5545C55.6304 17.4924 54.3795 14.5575 52.1579 12.3921C49.9363 10.2266 46.925 9.00695 43.7828 9V9C40.6397 9.00556 37.6269 10.2246 35.4041 12.3902C33.1814 14.5558 31.9298 17.4915 31.9233 20.5545V37.4402C31.9233 37.4402 55.6341 34.8667 55.6368 20.5571V20.5545Z" fill="#2196F3"/>
<path d="M13 42.9823C13.0057 45.1129 13.8766 47.1547 15.4223 48.6615C16.968 50.1683 19.0629 51.0177 21.2492 51.0239C23.4351 51.0177 25.5296 50.1687 27.0752 48.6625C28.6209 47.1562 29.492 45.1151 29.4985 42.9849V31.2356C29.4985 31.2356 13 33.0276 13 42.9823ZM21.2492 45.0874C20.822 45.0874 20.4043 44.964 20.0491 44.7326C19.6938 44.5013 19.417 44.1726 19.2535 43.7879C19.09 43.4032 19.0472 42.98 19.1305 42.5716C19.2139 42.1632 19.4196 41.7881 19.7217 41.4937C20.0239 41.1993 20.4088 40.9988 20.8278 40.9176C21.2468 40.8364 21.6812 40.8781 22.0759 41.0374C22.4706 41.1967 22.808 41.4665 23.0454 41.8127C23.2827 42.1589 23.4094 42.5659 23.4094 42.9823C23.4105 43.2594 23.3554 43.534 23.2473 43.7903C23.1392 44.0466 22.9803 44.2796 22.7796 44.476C22.5789 44.6723 22.3404 44.828 22.0778 44.9343C21.8152 45.0406 21.5336 45.0953 21.2492 45.0953V45.0874Z" fill="#2196F3"/>
<path d="M38.0894 43.7812H36.4019V45.5244H35.5229V41.2588H38.3003V41.9707H36.4019V43.0723H38.0894V43.7812ZM42.314 43.4883C42.314 43.9082 42.2397 44.2764 42.0913 44.5928C41.9429 44.9092 41.73 45.1533 41.4526 45.3252C41.1772 45.4971 40.8608 45.583 40.5034 45.583C40.1499 45.583 39.8345 45.498 39.5571 45.3281C39.2798 45.1582 39.0649 44.916 38.9126 44.6016C38.7603 44.2852 38.6831 43.9219 38.6812 43.5117V43.3008C38.6812 42.8809 38.7563 42.5117 38.9067 42.1934C39.0591 41.873 39.2729 41.6279 39.5483 41.458C39.8257 41.2861 40.1421 41.2002 40.4976 41.2002C40.853 41.2002 41.1685 41.2861 41.4438 41.458C41.7212 41.6279 41.9351 41.873 42.0854 42.1934C42.2378 42.5117 42.314 42.8799 42.314 43.2979V43.4883ZM41.4233 43.2949C41.4233 42.8477 41.3433 42.5078 41.1831 42.2754C41.0229 42.043 40.7944 41.9268 40.4976 41.9268C40.2026 41.9268 39.9751 42.042 39.8149 42.2725C39.6548 42.501 39.5737 42.8369 39.5718 43.2803V43.4883C39.5718 43.9238 39.6519 44.2617 39.812 44.502C39.9722 44.7422 40.2026 44.8623 40.5034 44.8623C40.7983 44.8623 41.0249 44.7471 41.1831 44.5166C41.3413 44.2842 41.4214 43.9463 41.4233 43.5029V43.2949ZM45.1646 44.4053C45.1646 44.2393 45.106 44.1123 44.9888 44.0244C44.8716 43.9346 44.6606 43.8408 44.356 43.7432C44.0513 43.6436 43.8101 43.5459 43.6323 43.4502C43.1479 43.1885 42.9058 42.8359 42.9058 42.3926C42.9058 42.1621 42.9702 41.957 43.0991 41.7773C43.23 41.5957 43.4165 41.4541 43.6587 41.3525C43.9028 41.251 44.1763 41.2002 44.479 41.2002C44.7837 41.2002 45.0552 41.2559 45.2935 41.3672C45.5317 41.4766 45.7163 41.6318 45.8472 41.833C45.98 42.0342 46.0464 42.2627 46.0464 42.5186H45.1675C45.1675 42.3232 45.106 42.1719 44.9829 42.0645C44.8599 41.9551 44.687 41.9004 44.4644 41.9004C44.2495 41.9004 44.0825 41.9463 43.9634 42.0381C43.8442 42.1279 43.7847 42.2471 43.7847 42.3955C43.7847 42.5342 43.854 42.6504 43.9927 42.7441C44.1333 42.8379 44.3394 42.9258 44.6108 43.0078C45.1108 43.1582 45.4751 43.3447 45.7036 43.5674C45.9321 43.79 46.0464 44.0674 46.0464 44.3994C46.0464 44.7686 45.9067 45.0586 45.6274 45.2695C45.3481 45.4785 44.9722 45.583 44.4995 45.583C44.1714 45.583 43.8726 45.5234 43.603 45.4043C43.3335 45.2832 43.1274 45.1182 42.9849 44.9092C42.8442 44.7002 42.7739 44.458 42.7739 44.1826H43.6558C43.6558 44.6533 43.937 44.8887 44.4995 44.8887C44.7085 44.8887 44.8716 44.8467 44.9888 44.7627C45.106 44.6768 45.1646 44.5576 45.1646 44.4053ZM49.855 41.9707H48.5483V45.5244H47.6694V41.9707H46.3804V41.2588H49.855V41.9707ZM52.9253 43.6758H51.2378V44.8184H53.2183V45.5244H50.3589V41.2588H53.2124V41.9707H51.2378V42.9873H52.9253V43.6758ZM55.313 43.9629H54.6128V45.5244H53.7339V41.2588H55.3188C55.8228 41.2588 56.2114 41.3711 56.4849 41.5957C56.7583 41.8203 56.895 42.1377 56.895 42.5479C56.895 42.8389 56.8315 43.082 56.7046 43.2773C56.5796 43.4707 56.3892 43.625 56.1333 43.7402L57.0562 45.4834V45.5244H56.1128L55.313 43.9629ZM54.6128 43.251H55.3218C55.5425 43.251 55.7134 43.1953 55.8345 43.084C55.9556 42.9707 56.0161 42.8154 56.0161 42.6182C56.0161 42.417 55.9585 42.2588 55.8433 42.1436C55.73 42.0283 55.5552 41.9707 55.3188 41.9707H54.6128V43.251ZM59.939 44.0215V45.5244H59.0601V41.2588H60.7241C61.0444 41.2588 61.3257 41.3174 61.5679 41.4346C61.812 41.5518 61.9995 41.7188 62.1304 41.9355C62.2612 42.1504 62.3267 42.3955 62.3267 42.6709C62.3267 43.0889 62.1831 43.4189 61.896 43.6611C61.6108 43.9014 61.2153 44.0215 60.7095 44.0215H59.939ZM59.939 43.3096H60.7241C60.9565 43.3096 61.1333 43.2549 61.2544 43.1455C61.3774 43.0361 61.439 42.8799 61.439 42.6768C61.439 42.4678 61.3774 42.2988 61.2544 42.1699C61.1313 42.041 60.9614 41.9746 60.7446 41.9707H59.939V43.3096ZM65.4995 43.6758H63.812V44.8184H65.7925V45.5244H62.9331V41.2588H65.7866V41.9707H63.812V42.9873H65.4995V43.6758ZM69.5776 41.9707H68.271V45.5244H67.3921V41.9707H66.103V41.2588H69.5776V41.9707ZM72.6479 43.6758H70.9604V44.8184H72.9409V45.5244H70.0815V41.2588H72.9351V41.9707H70.9604V42.9873H72.6479V43.6758ZM75.0356 43.9629H74.3354V45.5244H73.4565V41.2588H75.0415C75.5454 41.2588 75.9341 41.3711 76.2075 41.5957C76.481 41.8203 76.6177 42.1377 76.6177 42.5479C76.6177 42.8389 76.5542 43.082 76.4272 43.2773C76.3022 43.4707 76.1118 43.625 75.856 43.7402L76.7788 45.4834V45.5244H75.8354L75.0356 43.9629ZM74.3354 43.251H75.0444C75.2651 43.251 75.436 43.1953 75.5571 43.084C75.6782 42.9707 75.7388 42.8154 75.7388 42.6182C75.7388 42.417 75.6812 42.2588 75.5659 42.1436C75.4526 42.0283 75.2778 41.9707 75.0415 41.9707H74.3354V43.251ZM79.5005 44.4053C79.5005 44.2393 79.4419 44.1123 79.3247 44.0244C79.2075 43.9346 78.9966 43.8408 78.6919 43.7432C78.3872 43.6436 78.146 43.5459 77.9683 43.4502C77.4839 43.1885 77.2417 42.8359 77.2417 42.3926C77.2417 42.1621 77.3062 41.957 77.4351 41.7773C77.5659 41.5957 77.7524 41.4541 77.9946 41.3525C78.2388 41.251 78.5122 41.2002 78.8149 41.2002C79.1196 41.2002 79.3911 41.2559 79.6294 41.3672C79.8677 41.4766 80.0522 41.6318 80.1831 41.833C80.3159 42.0342 80.3823 42.2627 80.3823 42.5186H79.5034C79.5034 42.3232 79.4419 42.1719 79.3188 42.0645C79.1958 41.9551 79.0229 41.9004 78.8003 41.9004C78.5854 41.9004 78.4185 41.9463 78.2993 42.0381C78.1802 42.1279 78.1206 42.2471 78.1206 42.3955C78.1206 42.5342 78.1899 42.6504 78.3286 42.7441C78.4692 42.8379 78.6753 42.9258 78.9468 43.0078C79.4468 43.1582 79.811 43.3447 80.0396 43.5674C80.2681 43.79 80.3823 44.0674 80.3823 44.3994C80.3823 44.7686 80.2427 45.0586 79.9634 45.2695C79.6841 45.4785 79.3081 45.583 78.8354 45.583C78.5073 45.583 78.2085 45.5234 77.939 45.4043C77.6694 45.2832 77.4634 45.1182 77.3208 44.9092C77.1802 44.7002 77.1099 44.458 77.1099 44.1826H77.9917C77.9917 44.6533 78.2729 44.8887 78.8354 44.8887C79.0444 44.8887 79.2075 44.8467 79.3247 44.7627C79.4419 44.6768 79.5005 44.5576 79.5005 44.4053Z" fill="#2196F3"/>
</svg>

<svg xmlns="http://www.w3.org/2000/svg" width="106" height="60" fill="#AFB1B8"><path d="M25.402 21.83H25.4c-2.262 0-4.096 1.788-4.096 3.992v.003c0 2.204 1.834 3.992 4.096 3.992h.003c2.262 0 4.096-1.788 4.096-3.992v-.003c0-2.204-1.834-3.991-4.096-3.991ZM55.637 20.555c-.007-3.063-1.258-5.998-3.48-8.163-2.22-2.165-5.232-3.385-8.374-3.392-3.143.006-6.156 1.225-8.379 3.39-2.223 2.166-3.474 5.101-3.48 8.165V37.44s23.71-2.573 23.713-16.883v-.002ZM13 42.982a7.96 7.96 0 0 0 2.422 5.68 8.384 8.384 0 0 0 5.827 2.362 8.384 8.384 0 0 0 5.826-2.361 7.96 7.96 0 0 0 2.424-5.678v-11.75S13 33.029 13 42.983Zm8.25 2.105a2.2 2.2 0 0 1-1.2-.354 2.117 2.117 0 0 1-.797-.945 2.056 2.056 0 0 1-.122-1.216 2.09 2.09 0 0 1 .59-1.078 2.179 2.179 0 0 1 1.107-.576c.419-.082.853-.04 1.248.12.395.159.732.429.97.775a2.068 2.068 0 0 1 .201 1.977c-.108.257-.267.49-.467.686-.201.196-.44.352-.702.458a2.21 2.21 0 0 1-.829.161v-.008ZM38.09 43.781h-1.688v1.743h-.88V41.26H38.3v.712h-1.898v1.101h1.687v.71Zm4.224-.293c0 .42-.074.788-.223 1.105-.148.316-.361.56-.638.732a1.755 1.755 0 0 1-.95.258c-.353 0-.669-.085-.946-.255a1.695 1.695 0 0 1-.644-.726 2.511 2.511 0 0 1-.232-1.09V43.3c0-.42.075-.79.226-1.108.152-.32.366-.565.641-.735.278-.172.594-.258.95-.258.355 0 .67.086.946.258.277.17.491.415.641.735.153.319.229.687.229 1.105v.19Zm-.89-.193c0-.447-.08-.787-.24-1.02a.783.783 0 0 0-.686-.348.782.782 0 0 0-.683.346c-.16.228-.241.564-.243 1.007v.208c0 .436.08.774.24 1.014.16.24.39.36.691.36a.775.775 0 0 0 .68-.345c.158-.233.238-.57.24-1.014v-.208Zm3.74 1.11a.447.447 0 0 0-.175-.38c-.117-.09-.328-.184-.633-.282a4.565 4.565 0 0 1-.724-.293c-.484-.262-.726-.614-.726-1.057 0-.23.064-.436.193-.616.131-.181.318-.323.56-.425.244-.101.517-.152.82-.152.305 0 .576.056.815.167.238.11.422.265.553.466.133.201.2.43.2.686h-.88c0-.196-.061-.347-.184-.454-.123-.11-.296-.165-.519-.165-.215 0-.381.046-.5.138a.426.426 0 0 0-.18.358c0 .138.07.254.209.348.14.094.346.182.618.264.5.15.864.337 1.093.56.228.222.342.5.342.831 0 .37-.14.66-.419.87-.279.21-.655.314-1.128.314-.328 0-.626-.06-.896-.179a1.438 1.438 0 0 1-.618-.495 1.27 1.27 0 0 1-.211-.726h.882c0 .47.281.706.843.706.21 0 .373-.042.49-.126a.418.418 0 0 0 .176-.358Zm4.691-2.434h-1.307v3.553h-.879v-3.553H46.38v-.712h3.475v.712Zm3.07 1.705h-1.687v1.142h1.98v.706h-2.86V41.26h2.854v.712h-1.974v1.016h1.687v.689Zm2.388.287h-.7v1.561h-.88V41.26h1.586c.504 0 .892.112 1.166.337.273.224.41.542.41.952 0 .29-.064.534-.19.73a1.282 1.282 0 0 1-.572.462l.923 1.743v.041h-.943l-.8-1.561Zm-.7-.712h.709c.22 0 .391-.056.512-.167a.607.607 0 0 0 .182-.466c0-.201-.057-.36-.173-.474-.113-.116-.288-.173-.524-.173h-.706v1.28Zm5.326.77v1.503h-.879V41.26h1.664c.32 0 .602.058.844.176.244.117.431.284.562.5.131.215.197.46.197.736 0 .418-.144.748-.431.99-.285.24-.68.36-1.187.36h-.77Zm0-.711h.785c.233 0 .41-.055.53-.165.123-.109.185-.265.185-.468a.704.704 0 0 0-.185-.507c-.123-.129-.293-.195-.51-.2h-.805v1.34Zm5.56.366h-1.687v1.142h1.98v.706h-2.859V41.26h2.854v.712h-1.975v1.016H65.5v.689Zm4.079-1.705H68.27v3.553h-.879v-3.553h-1.289v-.712h3.475v.712Zm3.07 1.705H70.96v1.142h1.98v.706h-2.858V41.26h2.853v.712H70.96v1.016h1.688v.689Zm2.388.287h-.7v1.561h-.88V41.26h1.585c.504 0 .893.112 1.166.337.274.224.41.542.41.952 0 .29-.063.534-.19.73a1.282 1.282 0 0 1-.571.462l.923 1.743v.041h-.944l-.8-1.561Zm-.7-.712h.708c.221 0 .392-.056.513-.167a.607.607 0 0 0 .182-.466c0-.201-.058-.36-.173-.474-.113-.116-.288-.173-.525-.173h-.706v1.28Zm5.165 1.154a.447.447 0 0 0-.176-.38c-.118-.09-.328-.184-.633-.282a4.56 4.56 0 0 1-.724-.293c-.484-.262-.726-.614-.726-1.057 0-.23.064-.436.193-.616.13-.181.317-.323.56-.425.244-.101.517-.152.82-.152.305 0 .576.056.814.167.239.11.423.265.554.466.133.201.2.43.2.686h-.88c0-.196-.061-.347-.184-.454-.123-.11-.296-.165-.519-.165-.215 0-.382.046-.5.138a.426.426 0 0 0-.18.358c0 .138.07.254.209.348.14.094.346.182.618.264.5.15.864.337 1.093.56.228.222.342.5.342.831 0 .37-.14.66-.419.87-.279.21-.655.314-1.128.314-.328 0-.626-.06-.896-.179a1.438 1.438 0 0 1-.618-.495 1.27 1.27 0 0 1-.211-.726h.882c0 .47.28.706.843.706.21 0 .373-.042.49-.126a.418.418 0 0 0 .175-.358Z"/></svg>
